icons/chat-heart-fill.svg

<svg viewBox="0 0 24 24" fill="currentColor" xmlns="http://www.w3.org/2000/svg"><path d="M6.45455 19L2 22.5V4C2 3.44772 2.44772 3 3 3H21C21.5523 3 22 3.44772 22 4V18C22 18.5523 21.5523 19 21 19H6.45455ZM12.0178 14.6997L15.3765 11.341C16.2552 10.4623 16.2552 9.03769 15.3765 8.15901C14.4978 7.28033 13.0732 7.28033 12.1945 8.15901L12.0178 8.33579L11.841 8.15901C10.9623 7.28033 9.53769 7.28033 8.65901 8.15901C7.78033 9.03769 7.78033 10.4623 8.65901 11.341L12.0178 14.6997Z"/></svg>

<svg xmlns="http://www.w3.org/2000/svg" viewBox="0 0 24 24">
    <g>
        <path fill="none" d="M0 0h24v24H0z"/>
        <path d="M6.455 19L2 22.5V4a1 1 0 0 1 1-1h18a1 1 0 0 1 1 1v14a1 1 0 0 1-1 1H6.455zm5.563-4.3l3.359-3.359a2.25 2.25 0 0 0-3.182-3.182l-.177.177-.177-.177a2.25 2.25 0 0 0-3.182 3.182l3.359 3.359z"/>
    </g>
</svg>
